packages/gestalt/src/icons/arrow-circle-down.svg

<svg width="24" height="24" xmlns="http://www.w3.org/2000/svg"><path fill="#B5B5B5" d="M0 12c0 6.63 5.37 12 12 12s12-5.37 12-12S18.63 0 12 0 0 5.37 0 12zm10.77-3.75a1.25 1.25 0 0 1 2.5 0v3.95l1.03-1.03a1.25 1.25 0 0 1 1.77 0c.48.49.48 1.28 0 1.77L12 17l-4.07-4.06c-.48-.49-.48-1.28 0-1.77a1.25 1.25 0 0 1 1.77 0l1.07 1.06V8.25z"/></svg>

<svg width="24" height="24" viewBox="0 0 24 24" xmlns="http://www.w3.org/2000/svg" ><path fill="#aeaeae" d="M0.00,12.00 C0.00,18.63 5.37,24.00 12.00,24.00 C18.63,24.00 24.00,18.63 24.00,12.00 C24.00,5.37 18.63,0.00 12.00,0.00 C5.37,0.00 0.00,5.37 0.00,12.00 Z M10.77,8.25 C10.77,7.56 11.33,7.00 12.02,7.00 C12.71,7.00 13.27,7.56 13.27,8.25 L13.27,12.20 L14.30,11.17 C14.79,10.68 15.58,10.68 16.07,11.17 C16.55,11.66 16.55,12.45 16.07,12.94 L12.00,17.00 L7.93,12.94 C7.45,12.45 7.45,11.66 7.93,11.17 C8.42,10.68 9.21,10.68 9.70,11.17 L10.77,12.23 L10.77,8.25 Z"/></svg>
